frontend/public/svg/interface/megaphone.svg

<svg width="158" height="139" viewBox="0 0 158 139" fill="none" xmlns="http://www.w3.org/2000/svg">
<g clip-path="url(#clip0)">
<path d="M8.00737 93.1378C12.232 97.046 17.6554 99.1602 24.5882 99.6013C28.2363 99.8325 31.9457 99.8007 35.5365 99.7727C37.1293 99.7604 38.7221 99.7494 40.3149 99.7565C40.8393 99.7604 41.363 99.7565 41.8497 99.7565H42.0132L42.0341 99.8039C42.0712 99.8871 42.1031 99.9475 42.1142 99.9455C41.9839 102.963 41.8523 105.982 41.7194 109.001C41.466 114.751 41.2035 120.697 40.9794 126.547C40.9408 128.454 41.025 130.362 41.2314 132.259C41.3095 133.105 41.6258 133.913 42.1439 134.588C42.662 135.263 43.3607 135.778 44.1597 136.075C48.2284 137.803 52.6165 138.658 57.0383 138.584C58.6405 138.58 60.2415 138.495 61.835 138.328C64.6545 138.041 65.3131 136.724 65.5945 134.236C66.6762 124.36 66.6879 114.396 65.6309 104.517C65.4954 103.218 65.3984 101.916 65.285 100.411C65.257 100.03 65.2271 99.637 65.1958 99.2304C65.987 99.6636 66.7524 100.083 67.4931 100.489C69.6683 101.679 71.7223 102.803 73.719 103.946C78.7828 106.844 83.8856 109.878 88.8204 112.81C99.3087 119.045 110.155 125.487 121.284 131.044C122.008 131.404 122.725 131.783 123.439 132.16C127.098 134.094 130.88 136.089 135.621 135.738C138.944 135.488 140.393 134.983 140.295 131.197C140.266 130.083 140.206 128.954 140.148 127.863C140.055 126.126 139.961 124.331 139.991 122.578C140.186 111.407 140.462 100.49 140.707 91.2879C140.749 89.729 140.891 88.148 141.028 86.6178C141.076 86.0871 141.124 85.559 141.167 85.0329C145.211 84.525 148.974 82.7043 151.876 79.8516C154.779 76.9988 156.658 73.2731 157.225 69.2486C157.954 64.0734 157.39 60.0255 155.45 56.518C152.247 50.7203 146.513 48.3008 141.287 46.5444V46.008C141.287 45.3072 141.293 44.6342 141.282 43.96C141.224 40.1745 141.161 36.3887 141.096 32.6024C140.942 23.5583 140.784 14.2063 140.709 5.00957C140.688 2.57707 139.709 1.37219 138.89 0.78761C137.661 -0.088612 135.872 -0.230923 133.982 0.397824C133.252 0.667408 132.552 1.012 131.894 1.42604C131.666 1.5592 131.438 1.69241 131.209 1.81582C130.548 2.17761 129.891 2.54846 129.235 2.91999C128.075 3.57537 126.876 4.25286 125.675 4.86082C122.152 6.64008 118.62 8.40343 115.08 10.1511C107.968 13.682 100.614 17.3325 93.4887 21.1329C85.094 25.6114 76.3398 30.681 67.4703 36.2021C67.1094 36.4262 66.7537 36.6567 66.4032 36.8789C63.592 38.6813 61.1646 40.2401 57.781 39.0327C57.3555 38.9102 56.9088 38.8785 56.4702 38.9397C56.3777 38.9469 56.2853 38.9541 56.1941 38.958C54.6957 39.0275 53.1974 39.0801 51.6951 39.1321C48.2359 39.2536 44.6594 39.3789 41.1507 39.7166C33.2987 40.4753 27.4175 41.6944 22.0795 43.6683C14.2054 46.5802 9.10448 50.5612 6.02703 56.1972C2.38701 62.6454 0.766691 70.0326 1.37494 77.4074C1.80294 82.2672 2.93909 88.4455 8.00737 93.1378ZM56.9927 98.1463V130.895H50.1524L49.2405 99.6117L56.9927 98.1463ZM14.0809 57.8275C16.5095 53.9453 20.5303 51.0899 25.7041 49.5693C30.0319 48.2582 34.4525 47.2741 38.9286 46.6256C43.5167 45.9988 48.077 45.6144 52.9049 45.2072C54.7335 45.0532 56.5797 44.8974 58.452 44.7259L57.7882 89.5192L57.1875 89.6056C56.334 89.7492 55.4725 89.8394 54.6078 89.8778C51.4678 89.9479 48.2848 90.1597 45.206 90.3656C38.4726 90.8118 31.5099 91.2743 24.6794 90.2707L24.5296 90.2493C23.1856 90.0544 21.7935 89.8485 20.4749 89.5264C14.9083 88.1714 11.6028 84.8491 10.3676 79.3657C9.49998 75.7115 9.38187 71.9201 10.0204 68.2184C10.659 64.5175 12.041 60.983 14.0835 57.8275H14.0809ZM67.2912 44.5843C74.9066 39.2373 124.308 14.4343 133.374 11.349C133.885 37.3102 133.505 63.7246 133.142 89.2789C132.971 101.161 132.796 113.436 132.709 125.595C124.39 121.25 116.187 116.621 108.245 112.137C94.9479 104.632 81.2029 96.8732 66.9941 90.5338C67.8071 72.6496 67.9016 58.0251 67.2938 44.5843H67.2912ZM141.401 75.5016V53.8135C146.185 55.2256 149.295 59.9716 149.05 65.656C148.841 70.5431 145.673 74.5585 141.404 75.5004L141.401 75.5016Z" fill="black"/>
</g>
<defs>
<clipPath id="clip0">
<rect width="157" height="139" fill="white" transform="translate(0.777344)"/>
</clipPath>
</defs>
</svg>

<svg xmlns="http://www.w3.org/2000/svg" width="158" height="139" fill="none" viewBox="0 0 158 139"><g clip-path="url(#a)"><path fill="#000" d="M8.007 93.138c4.225 3.908 9.648 6.022 16.581 6.463 3.648.231 7.358.2 10.948.172 1.593-.013 3.186-.024 4.779-.016.524.003 1.048 0 1.535 0h.163l.021.047c.037.083.07.144.08.141q-.195 4.527-.395 9.056c-.253 5.75-.516 11.696-.74 17.546a44.5 44.5 0 0 0 .252 5.712 4.51 4.51 0 0 0 2.929 3.816 31.6 31.6 0 0 0 12.878 2.509 47 47 0 0 0 4.797-.256c2.82-.287 3.478-1.604 3.76-4.092a138 138 0 0 0 .036-29.719c-.136-1.299-.233-2.601-.346-4.106q-.042-.571-.09-1.18l2.298 1.258c2.175 1.19 4.23 2.314 6.226 3.457 5.064 2.898 10.167 5.932 15.101 8.864 10.489 6.235 21.335 12.677 32.464 18.234.724.36 1.441.739 2.155 1.116 3.659 1.934 7.441 3.929 12.182 3.578 3.323-.25 4.772-.755 4.674-4.541a124 124 0 0 0-.147-3.334c-.093-1.737-.187-3.532-.157-5.285.195-11.171.471-22.088.716-31.29.042-1.559.184-3.14.321-4.67q.073-.796.139-1.585a18.58 18.58 0 0 0 10.709-5.181 18.48 18.48 0 0 0 5.349-10.603c.729-5.176.165-9.223-1.775-12.731-3.203-5.798-8.937-8.217-14.163-9.974v-.536c0-.7.006-1.374-.005-2.048q-.088-5.678-.186-11.358c-.154-9.044-.312-18.396-.387-27.592-.021-2.433-1-3.638-1.819-4.222-1.229-.877-3.018-1.019-4.908-.39-.73.27-1.43.614-2.088 1.028-.228.133-.456.266-.685.39q-.99.544-1.974 1.104c-1.16.655-2.359 1.333-3.56 1.94q-5.285 2.67-10.595 5.291c-7.112 3.531-14.466 7.182-21.591 10.982-8.395 4.478-17.15 9.548-26.019 15.07-.36.223-.716.454-1.067.676-2.811 1.802-5.238 3.361-8.622 2.154a3.2 3.2 0 0 0-1.31-.093q-.14.011-.277.018c-1.498.07-2.997.122-4.499.174-3.46.122-7.036.247-10.544.585-7.852.758-13.734 1.977-19.072 3.951-7.874 2.912-12.975 6.893-16.052 12.53a36.96 36.96 0 0 0-4.652 21.21c.428 4.86 1.564 11.037 6.632 15.73m48.986 5.008v32.749h-6.84l-.913-31.283zM14.08 57.828c2.428-3.883 6.45-6.738 11.623-8.259a90 90 0 0 1 13.225-2.943c4.588-.627 9.148-1.012 13.976-1.419 1.828-.154 3.675-.31 5.547-.481l-.664 44.793-.6.087q-1.282.214-2.58.272c-3.14.07-6.323.282-9.402.488-6.733.446-13.696.908-20.527-.095l-.15-.022c-1.343-.195-2.735-.4-4.054-.723-5.567-1.355-8.872-4.677-10.107-10.16a27.8 27.8 0 0 1 3.716-21.538zm53.21-13.244c7.616-5.347 57.017-30.15 66.083-33.235.511 25.961.131 52.376-.232 77.93-.171 11.882-.346 24.157-.433 36.316-8.319-4.345-16.522-8.974-24.464-13.458-13.297-7.505-27.042-15.264-41.25-21.603.812-17.884.907-32.509.299-45.95zm74.11 30.918V53.814c4.784 1.412 7.894 6.158 7.649 11.842-.209 4.887-3.377 8.902-7.646 9.844z"/></g><defs><clipPath id="a"><path fill="#fff" d="M.777 0h157v139h-157z"/></clipPath></defs></svg>
